X:120
T:George White's Fancy
Z: id:dc-reel-111
M:C
L:1/8
K:G Major
Bd|eBB2 eBdB|AGAB GED2|GBB2 GBB2|gedB A2Bd|!
eBB2 eBdB|AGAB GED2|GABd gedB|AGAB G2:|!
Bd|gede gaba|gfga gedB|dega bgag|eaag a2ga|!
bgeg dged|gede gaba|gfgd egdB|AGAB G2:|!

